X: 39
T: Pollonesse #39
M: 3/4
L: 1/16
K: Eb
Q:120
c2|cBcd c2G2 G2g2|g2fg f2ef e2d2|cBcd c2[B2G2] [B4G4]|GFGA G2F2 E2D2|
EDCB, C2E2 G2g2| edcB B4 c2::d2|e4 B2BA G4|E2EG F2EF G4|B2eB G2BG F4|
B,DEG FEDC B,2G,2|G2c2 c2B2 c2d2|edeg e2dc B2G2|G2c2 c2B2 c2d2|edeg e2dc B2G2
cBcd c2G2 G4|GFGA G2F2 E2D2|EDCB, C2E2 G2g2|edcB B4 c2:|
|:c2|c2ec A2cA E4|CDEA dcBA c2B2|B2dB G2BG D4|A,CEA cBAG B2A2|
A,B,CD EFGA BcdB|eded e2G2 A2E2|agag fedc BAGF|EGBe f3g e2:|
B2|B2GE e2dc B4|agfe defd B2A2|G2FE c2BA G4|EGBe c2BA A2G2|
G,B,EG A,CFA F2B2|AGFE DEFD B,2A,2|G,2B,2 E2G2 B2e2|AGFE F2B2 E2:|

